X: 1
T: The Foxhunter
R: reel
M: 4/4
L: 1/8
K: Gmaj
|: d2BG d2BG | d2BG AGEG | d2BG dGBG | AcBG AGEG :|
|: D~D2B BAGE | DGBG AGEG | D~D2B BAGB | AcBG AGEG :|
|: gedB GABd | gdBd eaaf | gedB GABG | ABcd eA~A2 :|
|: dggf ~g2ge | dggd egdB | dggf ~g2gd | egdB AGAB :|
|: G2BG dGBG | GABG AGAB | ~G2BG dGBd | egdB AGAB :|


Tune 511	Setting 22808

